src/ui/Svg/optimized/qr-code.svg

<?xml version="1.0" standalone="no"?>
<!DOCTYPE svg PUBLIC "-//W3C//DTD SVG 1.1//EN" "http://www.w3.org/Graphics/SVG/1.1/DTD/svg11.dtd">
<svg class="icon" version="1.1" viewBox="0 0 1024 1024" fill="currentColor" aria-hidden="true">
  <path d="M512 75.09333333c241.28170667 0 436.90666667 195.62496 436.90666667 436.90666667s-195.62496 436.90666667-436.90666667 436.90666667S75.09333333 753.28170667 75.09333333 512 270.71829333 75.09333333 512 75.09333333z m218.45333333 480.59733334h-174.76266666V730.45333333l43.69066666-43.69066666v-87.38133334h87.38133334l43.69066666-43.69066666z m-262.144 0H293.54666667V730.45333333h174.76266666v-174.76266666z m-43.69066666 43.69066666v87.38133334h-87.38133334v-87.38133334h87.38133334zM468.30933333 293.54666667H293.54666667v174.76266666h174.76266666V293.54666667zM730.45333333 293.54666667h-174.76266666v174.76266666H730.45333333V293.54666667z m-305.83466666 43.69066666v87.38133334h-87.38133334v-87.38133334h87.38133334z m262.144 0v87.38133334h-87.38133334v-87.38133334h87.38133334z"/>
</svg>

<svg xmlns="http://www.w3.org/2000/svg" class="icon" viewBox="0 0 1024 1024" fill="currentColor" aria-hidden="true">
  <path d="M512 75.093c241.282 0 436.907 195.625 436.907 436.907S753.282 948.907 512 948.907 75.093 753.282 75.093 512 270.718 75.093 512 75.093zm218.453 480.598H555.691v174.762l43.69-43.69V599.38h87.382l43.69-43.69zm-262.144 0H293.547v174.762h174.762V555.691zm-43.69 43.69v87.382h-87.382V599.38h87.382zm43.69-305.834H293.547v174.762h174.762V293.547zm262.144 0H555.691v174.762h174.762V293.547zm-305.834 43.69v87.382h-87.382v-87.382h87.382zm262.144 0v87.382H599.38v-87.382h87.382z"/>
</svg>
